static/website/governance/uni-logo.svg

<svg fill="none" height="38" viewBox="0 0 33 38" width="33" xmlns="http://www.w3.org/2000/svg" xmlns:xlink="http://www.w3.org/1999/xlink"><clipPath id="a"><path d="m0 0h33v38h-33z"/></clipPath><g clip-path="url(#a)" fill="#f124ff"><path d="m12.9411 8.6471c-.4117-.05883-.4313-.07844-.2352-.09804.3725-.05883 1.2352.01961 1.8431.15686 1.4118.33333 2.6863 1.19608 4.0392 2.70588l.3529.4118.5099-.0785c2.1764-.3529 4.4117-.0784 6.2745.7844.5098.2352 1.3137.7058 1.4117.8235.0392.0392.0981.2941.1373.549.1372.9216.0784 1.6078-.2157 2.1373-.1569.2941-.1569.3725-.0588.6274.0784.1961.3137.3333.5294.3333.4706 0 .9608-.7451 1.1961-1.7843l.098-.4117.1765.196c1 1.1177 1.7843 2.6667 1.9019 3.7647l.0392.2942-.1764-.2549c-.2941-.451-.5686-.7451-.9412-1-.6667-.451-1.3725-.5883-3.2353-.6863-1.6863-.0981-2.6471-.2353-3.5882-.549-1.6079-.5294-2.4314-1.2157-4.3334-3.7451-.8431-1.1177-1.3725-1.7255-1.9019-2.2353-1.1569-1.11767-2.3137-1.70591-3.8236-1.9412z"/><path d="m27.549 11.1373c.0392-.7451.1373-1.23531.353-1.68629.0784-.17647.1568-.33333.1764-.33333s-.0196.13725-.0784.29411c-.1569.43138-.1765 1.03921-.0784 1.72551.1372.8823.196 1 1.1372 1.9608.4314.4509.9412 1.0196 1.1373 1.2549l.3333.4313-.3333-.3137c-.4118-.3921-1.353-1.1372-1.5686-1.2353-.1373-.0784-.1569-.0784-.2549.0196-.0785.0785-.0981.1961-.0981.7647-.0196.8824-.1372 1.4314-.4314 2-.1568.2942-.1764.2353-.0392-.098.0981-.2549.1177-.3726.1177-1.2157 0-1.7059-.1961-2.1176-1.3922-2.8039-.2941-.1765-.8039-.4314-1.098-.5686-.3138-.1373-.549-.2549-.5294-.2549.0392-.0393 1.196.2941 1.647.4902.6863.2745.8039.2941.8824.2745.0588-.0589.098-.2157.1176-.7059z"/><path d="m13.7451 14.0588c-.8235-1.1372-1.353-2.9019-1.2353-4.21564l.0392-.41176.1961.03921c.3529.05883.9608.29412 1.2549.47059.7843.4706 1.1372 1.1176 1.4706 2.7255.098.4706.2353 1.0196.2941 1.1961.098.2941.4706.9804.7843 1.4117.2157.3138.0784.4706-.4118.4314-.7451-.0784-1.7451-.7647-2.3921-1.6471z"/><path d="m26.549 22.5882c-3.8823-1.5687-5.2549-2.9216-5.2549-5.2157 0-.3333.0196-.6079.0196-.6079.0196 0 .1569.1177.3334.255.7843.6274 1.6666.9019 4.1176 1.2549 1.4314.2156 2.2549.3725 3 .6274 2.3726.7843 3.8432 2.3922 4.1961 4.5686.098.6275.0392 1.8236-.1176 2.451-.1373.4902-.5295 1.3922-.6275 1.4118-.0196 0-.0588-.0981-.0588-.2549-.0392-.8236-.451-1.6079-1.1373-2.2157-.8235-.7059-1.8823-1.2353-4.4706-2.2745z"/><path d="m23.8039 23.2353c-.0392-.2941-.1372-.6666-.196-.8235l-.0981-.2941.1765.2157c.2549.2941.451.647.6275 1.1372.1372.3726.1372.4902.1372 1.0981 0 .5882-.0196.7254-.1372 1.0588-.1961.5294-.4314.9019-.8236 1.3137-.7059.7255-1.6274 1.1177-2.9412 1.2941-.2352.0196-.9019.0785-1.4901.1177-1.4706.0784-2.451.2353-3.3334.549-.1176.0392-.2353.0784-.2549.0588-.0392-.0392.5686-.3921 1.0588-.6274.6863-.3334 1.3922-.5098 2.9412-.7844.7647-.1176 1.549-.2745 1.7451-.3529 1.9412-.6078 2.902-2.1176 2.5882-3.9608z"/><path d="m25.5882 26.3921c-.5098-1.1177-.6274-2.1765-.3529-3.1765.0392-.098.0784-.1961.1177-.1961.0392 0 .1568.0589.2745.1373.2353.1568.7255.4314 1.9804 1.1176 1.5882.8628 2.4901 1.5294 3.1176 2.2941.549.6667.8824 1.4314 1.0392 2.3726.0981.5294.0392 1.8039-.098 2.3333-.4314 1.6667-1.4118 3-2.8432 3.7647-.2156.1177-.3921.1961-.4117.1961s.0588-.1961.1764-.4314c.4706-1 .5295-1.9607.1765-3.0392-.2157-.6666-.6667-1.4706-1.5686-2.8235-1.0784-1.5686-1.3333-1.9804-1.6079-2.549z"/><path d="m10.9804 32.3921c1.4509-1.2157 3.2353-2.0784 4.8823-2.3529.7059-.1177 1.8824-.0785 2.5294.098 1.0392.2745 1.9804.8628 2.4706 1.5882.4706.7059.6863 1.3138.902 2.6667.0784.5294.1765 1.0784.1961 1.1961.1568.7059.4705 1.2549.8627 1.549.6078.451 1.6667.4706 2.7059.0784.1765-.0588.3333-.1176.3333-.098.0392.0392-.4902.3922-.8431.5686-.4902.2549-.8824.3334-1.4118.3334-.9412 0-1.7451-.4902-2.3921-1.4706-.1373-.1961-.4118-.7647-.6471-1.2941-.6863-1.5883-1.0392-2.0589-1.8431-2.5883-.7059-.451-1.6079-.549-2.2942-.2157-.9019.4314-1.1372 1.5883-.5098 2.2942.2549.2941.7255.5294 1.1177.5882.7255.098 1.3529-.4706 1.3529-1.1961 0-.4706-.1764-.7451-.647-.9608-.6275-.2745-1.3138.0392-1.2941.6471 0 .2549.1176.4117.3725.5294.1569.0784.1569.0784.0392.0588-.5686-.1176-.7059-.8235-.2549-1.2745.549-.549 1.7059-.3137 2.0981.451.1568.3137.1764.9412.0392 1.3333-.3334.8628-1.2745 1.3137-2.2353 1.0588-.6471-.1764-.9216-.3529-1.7059-1.1568-1.3726-1.4118-1.902-1.6863-3.8627-1.9804l-.3726-.0588z"/><g clip-rule="evenodd" fill-rule="evenodd"><path d="m.666318.843137c4.568632 5.549023 11.607882 14.176463 11.960782 14.647063.2941.3922.1765.7647-.3137 1.0392-.2745.1569-.8432.3137-1.1177.3137-.3137 0-.6862-.1568-.9411-.4117-.1765-.1765-.94122-1.2941-2.66671-3.9804-1.31373-2.0588-2.43137-3.76473-2.45098-3.78433-.07843-.03922-.07843-.03922 2.31372 4.23533 1.50981 2.6862 2 3.647 2 3.7647 0 .2549-.07843.3921-.39215.7451-.52941.5882-.76471 1.2549-.94118 2.647-.19608 1.549-.72549 2.6471-2.23529 4.5098-.88236 1.0981-1.01961 1.2941-1.2353 1.7451-.27451.549-.35294.8628-.39216 1.5687-.03921.7451.03922 1.2156.25491 1.9215.19607.6275.41176 1.0392.94117 1.8432.45098.7058.72549 1.2353.72549 1.4313 0 .1569.03922.1569.7451 0 1.68628-.3921 3.07843-1.0588 3.84318-1.8823.4705-.5098.5882-.7843.5882-1.4902 0-.451-.0196-.549-.1373-.8235-.196-.4314-.5686-.7844-1.37251-1.3334-1.05882-.7255-1.5098-1.3137-1.62745-2.098-.09804-.6667.01961-1.1177.60784-2.353.60785-1.2745.76471-1.8039.86275-3.098.05882-.8235.15686-1.1569.39217-1.4118.2549-.2745.4706-.3725 1.0784-.4509 1-.1373 1.6471-.3922 2.1569-.8824.451-.4118.647-.8235.6666-1.4314l.0197-.4509-.2549-.2746c-.9216-1.0588-13.686325-15.098-13.74514854-15.098-.01960786 0 .29411754.372549.66666654.843137zm6.019612 27.882363c.21568-.3726.09804-.8431-.2549-1.0784-.33334-.2157-.84314-.1177-.84314.1764 0 .0785.03921.1569.15686.1961.17647.098.19608.1961.05882.4118-.13725.2157-.13725.4117.03922.549.27451.2157.64706.098.84314-.2549z"/><path d="m14.6275 18.4117c-.4706.1373-.9216.6471-1.0588 1.1569-.0785.3137-.0393.8823.098 1.0588.2157.2745.4118.3529.9608.3529 1.0784 0 2-.4706 2.098-1.0392.0981-.4706-.3137-1.1176-.8823-1.4118-.2941-.1568-.902-.2156-1.2157-.1176zm1.2549.9804c.1568-.2353.098-.4902-.1961-.6667-.5294-.3333-1.3333-.0588-1.3333.451 0 .2549.4117.5294.8039.5294.2549 0 .6078-.1568.7255-.3137z"/></g></g></svg>

<svg width="33" height="38" viewBox="0 0 33 38" fill="none" xmlns="http://www.w3.org/2000/svg">
<g clip-path="url(#clip0)">
<path d="M12.9411 8.6471C12.5294 8.58827 12.5098 8.56866 12.7059 8.54906C13.0784 8.49023 13.9411 8.56867 14.549 8.70592C15.9608 9.03925 17.2353 9.902 18.5882 11.4118L18.9411 11.8236L19.451 11.7451C21.6274 11.3922 23.8627 11.6667 25.7255 12.5295C26.2353 12.7647 27.0392 13.2353 27.1372 13.353C27.1764 13.3922 27.2353 13.6471 27.2745 13.902C27.4117 14.8236 27.3529 15.5098 27.0588 16.0393C26.9019 16.3334 26.9019 16.4118 27 16.6667C27.0784 16.8628 27.3137 17 27.5294 17C28 17 28.4902 16.2549 28.7255 15.2157L28.8235 14.804L29 15C30 16.1177 30.7843 17.6667 30.9019 18.7647L30.9411 19.0589L30.7647 18.804C30.4706 18.353 30.1961 18.0589 29.8235 17.804C29.1568 17.353 28.451 17.2157 26.5882 17.1177C24.9019 17.0196 23.9411 16.8824 23 16.5687C21.3921 16.0393 20.5686 15.353 18.6666 12.8236C17.8235 11.7059 17.2941 11.0981 16.7647 10.5883C15.6078 9.47063 14.451 8.88239 12.9411 8.6471Z" fill="#F124FF"/>
<path d="M27.549 11.1373C27.5882 10.3922 27.6863 9.90199 27.902 9.45101C27.9804 9.27454 28.0588 9.11768 28.0784 9.11768C28.098 9.11768 28.0588 9.25493 28 9.41179C27.8431 9.84317 27.8235 10.451 27.9216 11.1373C28.0588 12.0196 28.1176 12.1373 29.0588 13.0981C29.4902 13.549 30 14.1177 30.1961 14.353L30.5294 14.7843L30.1961 14.4706C29.7843 14.0785 28.8431 13.3334 28.6275 13.2353C28.4902 13.1569 28.4706 13.1569 28.3726 13.2549C28.2941 13.3334 28.2745 13.451 28.2745 14.0196C28.2549 14.902 28.1373 15.451 27.8431 16.0196C27.6863 16.3138 27.6667 16.2549 27.8039 15.9216C27.902 15.6667 27.9216 15.549 27.9216 14.7059C27.9216 13 27.7255 12.5883 26.5294 11.902C26.2353 11.7255 25.7255 11.4706 25.4314 11.3334C25.1176 11.1961 24.8824 11.0785 24.902 11.0785C24.9412 11.0392 26.098 11.3726 26.549 11.5687C27.2353 11.8432 27.3529 11.8628 27.4314 11.8432C27.4902 11.7843 27.5294 11.6275 27.549 11.1373Z" fill="#F124FF"/>
<path d="M13.7451 14.0588C12.9216 12.9216 12.3921 11.1569 12.5098 9.84316L12.549 9.4314L12.7451 9.47061C13.098 9.52944 13.7059 9.76473 14 9.9412C14.7843 10.4118 15.1372 11.0588 15.4706 12.6667C15.5686 13.1373 15.7059 13.6863 15.7647 13.8628C15.8627 14.1569 16.2353 14.8432 16.549 15.2745C16.7647 15.5883 16.6274 15.7451 16.1372 15.7059C15.3921 15.6275 14.3921 14.9412 13.7451 14.0588Z" fill="#F124FF"/>
<path d="M26.549 22.5882C22.6667 21.0195 21.2941 19.6666 21.2941 17.3725C21.2941 17.0392 21.3137 16.7646 21.3137 16.7646C21.3333 16.7646 21.4706 16.8823 21.6471 17.0196C22.4314 17.647 23.3137 17.9215 25.7647 18.2745C27.1961 18.4901 28.0196 18.647 28.7647 18.9019C31.1373 19.6862 32.6079 21.2941 32.9608 23.4705C33.0588 24.098 33 25.2941 32.8432 25.9215C32.7059 26.4117 32.3137 27.3137 32.2157 27.3333C32.1961 27.3333 32.1569 27.2352 32.1569 27.0784C32.1177 26.2548 31.7059 25.4705 31.0196 24.8627C30.1961 24.1568 29.1373 23.6274 26.549 22.5882Z" fill="#F124FF"/>
<path d="M23.8039 23.2353C23.7647 22.9412 23.6667 22.5687 23.6079 22.4118L23.5098 22.1177L23.6863 22.3334C23.9412 22.6275 24.1373 22.9804 24.3138 23.4706C24.451 23.8432 24.451 23.9608 24.451 24.5687C24.451 25.1569 24.4314 25.2941 24.3138 25.6275C24.1177 26.1569 23.8824 26.5294 23.4902 26.9412C22.7843 27.6667 21.8628 28.0589 20.549 28.2353C20.3138 28.2549 19.6471 28.3138 19.0589 28.353C17.5883 28.4314 16.6079 28.5883 15.7255 28.902C15.6079 28.9412 15.4902 28.9804 15.4706 28.9608C15.4314 28.9216 16.0392 28.5687 16.5294 28.3334C17.2157 28 17.9216 27.8236 19.4706 27.549C20.2353 27.4314 21.0196 27.2745 21.2157 27.1961C23.1569 26.5883 24.1177 25.0785 23.8039 23.2353Z" fill="#F124FF"/>
<path d="M25.5882 26.3921C25.0784 25.2744 24.9608 24.2156 25.2353 23.2156C25.2745 23.1176 25.3137 23.0195 25.353 23.0195C25.3922 23.0195 25.5098 23.0784 25.6275 23.1568C25.8628 23.3136 26.353 23.5882 27.6079 24.2744C29.1961 25.1372 30.098 25.8038 30.7255 26.5685C31.2745 27.2352 31.6079 27.9999 31.7647 28.9411C31.8628 29.4705 31.8039 30.745 31.6667 31.2744C31.2353 32.9411 30.2549 34.2744 28.8235 35.0391C28.6079 35.1568 28.4314 35.2352 28.4118 35.2352C28.3922 35.2352 28.4706 35.0391 28.5882 34.8038C29.0588 33.8038 29.1177 32.8431 28.7647 31.7646C28.549 31.098 28.098 30.294 27.1961 28.9411C26.1177 27.3725 25.8628 26.9607 25.5882 26.3921Z" fill="#F124FF"/>
<path d="M10.9804 32.3921C12.4313 31.1764 14.2157 30.3137 15.8627 30.0392C16.5686 29.9215 17.7451 29.9607 18.3921 30.1372C19.4313 30.4117 20.3725 31 20.8627 31.7254C21.3333 32.4313 21.549 33.0392 21.7647 34.3921C21.8431 34.9215 21.9412 35.4705 21.9608 35.5882C22.1176 36.2941 22.4313 36.8431 22.8235 37.1372C23.4313 37.5882 24.4902 37.6078 25.5294 37.2156C25.7059 37.1568 25.8627 37.098 25.8627 37.1176C25.9019 37.1568 25.3725 37.5098 25.0196 37.6862C24.5294 37.9411 24.1372 38.0196 23.6078 38.0196C22.6666 38.0196 21.8627 37.5294 21.2157 36.549C21.0784 36.3529 20.8039 35.7843 20.5686 35.2549C19.8823 33.6666 19.5294 33.196 18.7255 32.6666C18.0196 32.2156 17.1176 32.1176 16.4313 32.4509C15.5294 32.8823 15.2941 34.0392 15.9215 34.7451C16.1764 35.0392 16.647 35.2745 17.0392 35.3333C17.7647 35.4313 18.3921 34.8627 18.3921 34.1372C18.3921 33.6666 18.2157 33.3921 17.7451 33.1764C17.1176 32.9019 16.4313 33.2156 16.451 33.8235C16.451 34.0784 16.5686 34.2352 16.8235 34.3529C16.9804 34.4313 16.9804 34.4313 16.8627 34.4117C16.2941 34.2941 16.1568 33.5882 16.6078 33.1372C17.1568 32.5882 18.3137 32.8235 18.7059 33.5882C18.8627 33.9019 18.8823 34.5294 18.7451 34.9215C18.4117 35.7843 17.4706 36.2352 16.5098 35.9803C15.8627 35.8039 15.5882 35.6274 14.8039 34.8235C13.4313 33.4117 12.9019 33.1372 10.9412 32.8431L10.5686 32.7843L10.9804 32.3921Z" fill="#F124FF"/>
<path fill-rule="evenodd" clip-rule="evenodd" d="M0.666318 0.843137C5.23495 6.39216 12.2742 15.0196 12.6271 15.4902C12.9212 15.8824 12.8036 16.2549 12.3134 16.5294C12.0389 16.6863 11.4702 16.8431 11.1957 16.8431C10.882 16.8431 10.5095 16.6863 10.2546 16.4314C10.0781 16.2549 9.31338 15.1373 7.58789 12.451C6.27416 10.3922 5.15652 8.68627 5.13691 8.66667C5.05848 8.62745 5.05848 8.62745 7.45063 12.902C8.96044 15.5882 9.45063 16.549 9.45063 16.6667C9.45063 16.9216 9.3722 17.0588 9.05848 17.4118C8.52907 18 8.29377 18.6667 8.1173 20.0588C7.92122 21.6078 7.39181 22.7059 5.88201 24.5686C4.99965 25.6667 4.8624 25.8627 4.64671 26.3137C4.3722 26.8627 4.29377 27.1765 4.25455 27.8824C4.21534 28.6275 4.29377 29.098 4.50946 29.8039C4.70553 30.4314 4.92122 30.8431 5.45063 31.6471C5.90161 32.3529 6.17612 32.8824 6.17612 33.0784C6.17612 33.2353 6.21534 33.2353 6.92122 33.0784C8.6075 32.6863 9.99965 32.0196 10.7644 31.1961C11.2349 30.6863 11.3526 30.4118 11.3526 29.7059C11.3526 29.2549 11.333 29.1569 11.2153 28.8824C11.0193 28.451 10.6467 28.098 9.84279 27.549C8.78397 26.8235 8.33299 26.2353 8.21534 25.451C8.1173 24.7843 8.23495 24.3333 8.82318 23.098C9.43103 21.8235 9.58789 21.2941 9.68593 20C9.74475 19.1765 9.84279 18.8431 10.0781 18.5882C10.333 18.3137 10.5487 18.2157 11.1565 18.1373C12.1565 18 12.8036 17.7451 13.3134 17.2549C13.7644 16.8431 13.9604 16.4314 13.98 15.8235L13.9997 15.3726L13.7448 15.098C12.8232 14.0392 0.058475 0 -0.000348537 0C-0.0199564 0 0.293769 0.372549 0.666318 0.843137ZM6.68593 28.7255C6.90161 28.3529 6.78397 27.8824 6.43103 27.6471C6.09769 27.4314 5.58789 27.5294 5.58789 27.8235C5.58789 27.902 5.6271 27.9804 5.74475 28.0196C5.92122 28.1176 5.94083 28.2157 5.80357 28.4314C5.66632 28.6471 5.66632 28.8431 5.84279 28.9804C6.1173 29.1961 6.48985 29.0784 6.68593 28.7255Z" fill="#F124FF"/>
<path fill-rule="evenodd" clip-rule="evenodd" d="M14.6275 18.4117C14.1569 18.549 13.7059 19.0588 13.5687 19.5686C13.4902 19.8823 13.5294 20.4509 13.6667 20.6274C13.8824 20.9019 14.0785 20.9803 14.6275 20.9803C15.7059 20.9803 16.6275 20.5097 16.7255 19.9411C16.8236 19.4705 16.4118 18.8235 15.8432 18.5293C15.5491 18.3725 14.9412 18.3137 14.6275 18.4117ZM15.8824 19.3921C16.0392 19.1568 15.9804 18.9019 15.6863 18.7254C15.1569 18.3921 14.353 18.6666 14.353 19.1764C14.353 19.4313 14.7647 19.7058 15.1569 19.7058C15.4118 19.7058 15.7647 19.549 15.8824 19.3921Z" fill="#F124FF"/>
</g>
<defs>
<clipPath id="clip0">
<rect width="33" height="38" fill="white"/>
</clipPath>
</defs>
</svg>
